img/stability-matrix.svg

<?xml version="1.0" encoding="UTF-8"?>
<!DOCTYPE svg PUBLIC "-//W3C//DTD SVG 1.1//EN" "http://www.w3.org/Graphics/SVG/1.1/DTD/svg11.dtd">
<svg xmlns="http://www.w3.org/2000/svg" version="1.1" width="168px" height="168px" style="shape-rendering:geometricPrecision; text-rendering:geometricPrecision; image-rendering:optimizeQuality; fill-rule:evenodd; clip-rule:evenodd" xmlns:xlink="http://www.w3.org/1999/xlink">
<g><path style="opacity:0.976" fill="#664bc2" d="M 44.5,26.5 C 45.299,29.4299 45.6323,32.4299 45.5,35.5C 45.5674,36.9587 45.2341,38.2921 44.5,39.5C 42.8333,41.8333 40.8333,43.8333 38.5,45.5C 31.2129,47.7931 25.3796,45.7931 21,39.5C 18.6695,23.8306 25.1695,17.9973 40.5,22C 42.0414,23.3712 43.3747,24.8712 44.5,26.5 Z"/></g>
<g><path style="opacity:0.986" fill="#44e5d0" d="M 84.5,20.5 C 84.5,27.5 84.5,34.5 84.5,41.5C 82.8333,41.5 81.1667,41.5 79.5,41.5C 77.8333,39.5 76.1667,37.5 74.5,35.5C 73.1667,32.5 73.1667,29.5 74.5,26.5C 76.2041,21.9745 79.5375,19.9745 84.5,20.5 Z"/></g>
<g><path style="opacity:0.979" fill="#29cbcb" d="M 84.5,20.5 C 89.1132,20.4694 92.4465,22.4694 94.5,26.5C 94.7359,29.6085 94.4025,32.6085 93.5,35.5C 91.8333,37.5 90.1667,39.5 88.5,41.5C 87.1667,41.5 85.8333,41.5 84.5,41.5C 84.5,34.5 84.5,27.5 84.5,20.5 Z"/></g>
<g><path style="opacity:0.966" fill="#67329e" d="M 129.5,45.5 C 127.833,43.1667 125.833,41.1667 123.5,39.5C 122.766,38.2921 122.433,36.9587 122.5,35.5C 122.368,32.4299 122.701,29.4299 123.5,26.5C 126.084,21.8743 130.084,19.8743 135.5,20.5C 145.529,21.7117 149.696,27.3783 148,37.5C 144.123,45.2969 137.956,47.9635 129.5,45.5 Z"/></g>
<g><path style="opacity:0.842" fill="#d0e4fb" d="M 44.5,26.5 C 54.5,26.5 64.5,26.5 74.5,26.5C 73.1667,29.5 73.1667,32.5 74.5,35.5C 74.1667,35.5 73.8333,35.5 73.5,35.5C 64.1667,35.5 54.8333,35.5 45.5,35.5C 45.6323,32.4299 45.299,29.4299 44.5,26.5 Z"/></g>
<g><path style="opacity:0.833" fill="#b4c5f2" d="M 94.5,26.5 C 104.167,26.5 113.833,26.5 123.5,26.5C 122.701,29.4299 122.368,32.4299 122.5,35.5C 113.318,35.1734 104.318,35.5067 95.5,36.5C 94.8333,36.1667 94.1667,35.8333 93.5,35.5C 94.4025,32.6085 94.7359,29.6085 94.5,26.5 Z"/></g>
<g><path style="opacity:0.999" fill="#d0e3fc" d="M 93.5,35.5 C 94.1667,35.8333 94.8333,36.1667 95.5,36.5C 100.833,41.1667 105.833,46.1667 110.5,51.5C 112.5,54.1667 114.833,56.5 117.5,58.5C 122.833,63.5 128.167,68.5 133.5,73.5C 131.167,75.1667 129.167,77.1667 127.5,79.5C 121.833,74.5 116.5,69.1667 111.5,63.5C 109.786,60.7872 107.453,58.7872 104.5,57.5C 99.5,51.8333 94.1667,46.5 88.5,41.5C 90.1667,39.5 91.8333,37.5 93.5,35.5 Z"/></g>
<g><path style="opacity:0.958" fill="#ebf3fe" d="M 73.5,35.5 C 73.8333,35.5 74.1667,35.5 74.5,35.5C 76.1667,37.5 77.8333,39.5 79.5,41.5C 74.1667,47.1667 68.8333,52.8333 63.5,58.5C 60.5,59.5 58.5,61.5 57.5,64.5C 51.8333,69.5 46.5,74.8333 41.5,80.5C 41.1667,80.5 40.8333,80.5 40.5,80.5C 39.5265,77.865 37.8598,75.865 35.5,74.5C 40.8333,68.8333 46.1667,63.1667 51.5,57.5C 54.5,56.5 56.5,54.5 57.5,51.5C 63.1667,46.5 68.5,41.1667 73.5,35.5 Z"/></g>
<g><path style="opacity:0.989" fill="#d1e4fc" d="M 44.5,39.5 C 48.8333,43.5 53.1667,47.5 57.5,51.5C 56.5,54.5 54.5,56.5 51.5,57.5C 47.1667,53.5 42.8333,49.5 38.5,45.5C 40.8333,43.8333 42.8333,41.8333 44.5,39.5 Z"/></g>
<g><path style="opacity:0.997" fill="#b4c5f2" d="M 123.5,39.5 C 125.833,41.1667 127.833,43.1667 129.5,45.5C 124.77,49.2269 120.77,53.5603 117.5,58.5C 114.833,56.5 112.5,54.1667 110.5,51.5C 114.833,47.5 119.167,43.5 123.5,39.5 Z"/></g>
<g><path style="opacity:0.99" fill="#d0e3fa" d="M 63.5,58.5 C 68.5,62.8333 73.1667,67.5 77.5,72.5C 75.8333,74.8333 73.8333,76.8333 71.5,78.5C 67.1667,73.5 62.5,68.8333 57.5,64.5C 58.5,61.5 60.5,59.5 63.5,58.5 Z"/></g>
<g><path style="opacity:0.997" fill="#b4c4f2" d="M 104.5,57.5 C 107.453,58.7872 109.786,60.7872 111.5,63.5C 106.167,68.1667 101.167,73.1667 96.5,78.5C 94.1667,76.8333 92.1667,74.8333 90.5,72.5C 95.1667,67.5 99.8333,62.5 104.5,57.5 Z"/></g>
<g><path style="opacity:0.989" fill="#fcc94c" d="M 84.5,70.5 C 86.5786,70.9707 88.5786,71.6373 90.5,72.5C 92.1667,74.8333 94.1667,76.8333 96.5,78.5C 96.5,79.1667 96.5,79.8333 96.5,80.5C 96.5,83.1667 96.5,85.8333 96.5,88.5C 96.1667,89.1667 95.8333,89.8333 95.5,90.5C 93.8333,92.5 92.1667,94.5 90.5,96.5C 88.5648,97.1495 86.5648,97.4828 84.5,97.5C 84.5,88.5 84.5,79.5 84.5,70.5 Z"/></g>
<g><path style="opacity:0.977" fill="#fee40c" d="M 84.5,70.5 C 84.5,79.5 84.5,88.5 84.5,97.5C 82.139,97.3259 79.8056,96.9926 77.5,96.5C 75.8036,94.4752 74.137,92.4752 72.5,90.5C 72.1667,89.8333 71.8333,89.1667 71.5,88.5C 71.5,85.8333 71.5,83.1667 71.5,80.5C 71.5,79.8333 71.5,79.1667 71.5,78.5C 73.8333,76.8333 75.8333,74.8333 77.5,72.5C 79.7722,71.6814 82.1055,71.0147 84.5,70.5 Z"/></g>
<g><path style="opacity:0.979" fill="#46e6d1" d="M 35.5,74.5 C 37.8598,75.865 39.5265,77.865 40.5,80.5C 41.7143,83.1293 41.7143,85.796 40.5,88.5C 38.8333,90.5 37.1667,92.5 35.5,94.5C 22.9509,96.4446 18.1175,91.1112 21,78.5C 24.8734,73.6624 29.7067,72.3291 35.5,74.5 Z"/></g>
<g><path style="opacity:0.976" fill="#29cccb" d="M 133.5,73.5 C 141.994,72.1765 146.994,75.6765 148.5,84C 146.973,93.2651 141.64,96.7651 132.5,94.5C 131.167,92.5 129.5,90.8333 127.5,89.5C 127.5,89.1667 127.5,88.8333 127.5,88.5C 127.5,85.8333 127.5,83.1667 127.5,80.5C 127.5,80.1667 127.5,79.8333 127.5,79.5C 129.167,77.1667 131.167,75.1667 133.5,73.5 Z"/></g>
<g><path style="opacity:0.932" fill="#d0e3fa" d="M 40.5,80.5 C 40.8333,80.5 41.1667,80.5 41.5,80.5C 51.5,80.5 61.5,80.5 71.5,80.5C 71.5,83.1667 71.5,85.8333 71.5,88.5C 61.5,88.5 51.5,88.5 41.5,88.5C 41.1667,88.5 40.8333,88.5 40.5,88.5C 41.7143,85.796 41.7143,83.1293 40.5,80.5 Z"/></g>
<g><path style="opacity:0.932" fill="#b3c5f1" d="M 96.5,80.5 C 106.833,80.5 117.167,80.5 127.5,80.5C 127.5,83.1667 127.5,85.8333 127.5,88.5C 117.167,88.5 106.833,88.5 96.5,88.5C 96.5,85.8333 96.5,83.1667 96.5,80.5 Z"/></g>
<g><path style="opacity:0.906" fill="#ebf3fd" d="M 40.5,88.5 C 40.8333,88.5 41.1667,88.5 41.5,88.5C 46.5,94.1667 51.8333,99.5 57.5,104.5C 59.1667,106.833 61.1667,108.833 63.5,110.5C 68.8333,116.167 74.1667,121.833 79.5,127.5C 78.0892,129.914 76.0892,131.581 73.5,132.5C 67.8063,127.473 62.4729,122.14 57.5,116.5C 55.8333,114.167 53.8333,112.167 51.5,110.5C 45.8333,105.5 40.5,100.167 35.5,94.5C 37.1667,92.5 38.8333,90.5 40.5,88.5 Z"/></g>
<g><path style="opacity:0.989" fill="#d1e3fc" d="M 127.5,89.5 C 129.5,90.8333 131.167,92.5 132.5,94.5C 127.167,100.167 121.833,105.833 116.5,111.5C 114.086,112.911 112.419,114.911 111.5,117.5C 105.224,122.107 99.5572,127.441 94.5,133.5C 92.8333,131.167 90.8333,129.167 88.5,127.5C 93.5,121.833 98.8333,116.5 104.5,111.5C 107.167,109.5 109.5,107.167 111.5,104.5C 116.224,98.7731 121.558,93.7731 127.5,89.5 Z"/></g>
<g><path style="opacity:0.995" fill="#d0e4fb" d="M 72.5,90.5 C 74.137,92.4752 75.8036,94.4752 77.5,96.5C 73.1667,101.5 68.5,106.167 63.5,110.5C 61.1667,108.833 59.1667,106.833 57.5,104.5C 62.5,99.8333 67.5,95.1667 72.5,90.5 Z"/></g>
<g><path style="opacity:1" fill="#b3c5f2" d="M 95.5,90.5 C 100.557,95.5618 105.89,100.228 111.5,104.5C 109.5,107.167 107.167,109.5 104.5,111.5C 99.8333,106.5 95.1667,101.5 90.5,96.5C 92.1667,94.5 93.8333,92.5 95.5,90.5 Z"/></g>
<g><path style="opacity:0.999" fill="#b3c5f1" d="M 116.5,111.5 C 120.833,115.5 125.167,119.5 129.5,123.5C 127.167,125.167 125.167,127.167 123.5,129.5C 119.167,125.833 115.167,121.833 111.5,117.5C 112.419,114.911 114.086,112.911 116.5,111.5 Z"/></g>
<g><path style="opacity:1" fill="#cfe5fc" d="M 51.5,110.5 C 53.8333,112.167 55.8333,114.167 57.5,116.5C 53.5,121.167 49.1667,125.5 44.5,129.5C 42.8333,127.5 41.1667,125.5 39.5,123.5C 43.5,119.167 47.5,114.833 51.5,110.5 Z"/></g>
<g><path style="opacity:0.979" fill="#664bc2" d="M 39.5,123.5 C 41.1667,125.5 42.8333,127.5 44.5,129.5C 45.1667,131.167 45.8333,132.833 46.5,134.5C 45.5115,137.081 44.5115,139.748 43.5,142.5C 41.3913,146.646 37.8913,148.646 33,148.5C 21.7421,147.015 17.7421,140.682 21,129.5C 25.4278,122.616 31.5944,120.616 39.5,123.5 Z"/></g>
<g><path style="opacity:0.973" fill="#67329e" d="M 124.5,142.5 C 123.488,139.748 122.488,137.081 121.5,134.5C 122.167,132.833 122.833,131.167 123.5,129.5C 125.167,127.167 127.167,125.167 129.5,123.5C 142.576,120.739 148.743,126.072 148,139.5C 144.501,146.999 138.667,149.833 130.5,148C 128.004,146.669 126.004,144.836 124.5,142.5 Z"/></g>
<g><path style="opacity:0.977" fill="#29cbcc" d="M 84.5,126.5 C 85.8333,126.833 87.1667,127.167 88.5,127.5C 90.8333,129.167 92.8333,131.167 94.5,133.5C 94.5,133.833 94.5,134.167 94.5,134.5C 94.7214,137.279 94.388,139.946 93.5,142.5C 92.0692,146.723 89.0692,148.723 84.5,148.5C 84.5,141.167 84.5,133.833 84.5,126.5 Z"/></g>
<g><path style="opacity:0.986" fill="#45e5d0" d="M 84.5,126.5 C 84.5,133.833 84.5,141.167 84.5,148.5C 79.8949,148.552 76.5616,146.552 74.5,142.5C 73.612,139.946 73.2786,137.279 73.5,134.5C 73.5,133.833 73.5,133.167 73.5,132.5C 76.0892,131.581 78.0892,129.914 79.5,127.5C 81.1172,126.962 82.7839,126.629 84.5,126.5 Z"/></g>
<g><path style="opacity:0.933" fill="#d0e3fb" d="M 46.5,134.5 C 55.5,134.5 64.5,134.5 73.5,134.5C 73.2786,137.279 73.612,139.946 74.5,142.5C 64.1667,142.5 53.8333,142.5 43.5,142.5C 44.5115,139.748 45.5115,137.081 46.5,134.5 Z"/></g>
<g><path style="opacity:0.93" fill="#b4c4f1" d="M 94.5,134.5 C 103.5,134.5 112.5,134.5 121.5,134.5C 122.488,137.081 123.488,139.748 124.5,142.5C 114.167,142.5 103.833,142.5 93.5,142.5C 94.388,139.946 94.7214,137.279 94.5,134.5 Z"/></g>
</svg>

<svg xmlns="http://www.w3.org/2000/svg" width="168" height="168" style="shape-rendering:geometricPrecision;text-rendering:geometricPrecision;image-rendering:optimizeQuality;fill-rule:evenodd;clip-rule:evenodd"><path fill="#664bc2" d="M44.5 26.5a29.2 29.2 0 0 1 1 9q.1 2.188-1 4a25.6 25.6 0 0 1-6 6q-10.93 3.44-17.5-6Q17.505 15.995 40.5 22a25.2 25.2 0 0 1 4 4.5" style="opacity:.976"/><path fill="#44e5d0" d="M84.5 20.5v21h-5l-5-6q-2-4.5 0-9 2.556-6.789 10-6" style="opacity:.986"/><path fill="#29cbcb" d="M84.5 20.5q6.92-.045 10 6 .354 4.662-1 9l-5 6h-4z" style="opacity:.979"/><path fill="#67329e" d="M129.5 45.5a25.7 25.7 0 0 0-6-6q-1.1-1.812-1-4a29.2 29.2 0 0 1 1-9q3.876-6.939 12-6 15.044 1.817 12.5 17-5.816 11.696-18.5 8" style="opacity:.966"/><path fill="#d0e4fb" d="M44.5 26.5h30q-2 4.5 0 9h-29a29.2 29.2 0 0 0-1-9" style="opacity:.842"/><path fill="#b4c5f2" d="M94.5 26.5h29a29.2 29.2 0 0 0-1 9q-13.773-.49-27 1l-2-1q1.354-4.338 1-9" style="opacity:.833"/><path fill="#d0e3fc" d="m93.5 35.5 2 1a159 159 0 0 1 15 15q3 4 7 7l16 15a25.7 25.7 0 0 0-6 6q-8.5-7.5-16-16-2.57-4.07-7-6-7.5-8.5-16-16z" style="opacity:.999"/><path fill="#ebf3fe" d="M73.5 35.5h1l5 6-16 17c-3 1-5 3-6 6q-8.5 7.5-16 16h-1q-1.46-3.953-5-6l16-17c3-1 5-3 6-6q8.5-7.5 16-16" style="opacity:.958"/><path fill="#d1e4fc" d="m44.5 39.5 13 12c-1 3-3 5-6 6l-13-12a25.6 25.6 0 0 0 6-6" style="opacity:.989"/><path fill="#b4c5f2" d="M123.5 39.5a25.7 25.7 0 0 1 6 6q-7.095 5.59-12 13-4-3-7-7z" style="opacity:.997"/><path fill="#d0e3fa" d="M63.5 58.5q7.5 6.5 14 14a25.6 25.6 0 0 1-6 6q-6.5-7.5-14-14c1-3 3-5 6-6" style="opacity:.99"/><path fill="#b4c4f2" d="M104.5 57.5q4.43 1.93 7 6a159 159 0 0 0-15 15 25.6 25.6 0 0 1-6-6z" style="opacity:.997"/><path fill="#fcc94c" d="M84.5 70.5a31.7 31.7 0 0 1 6 2 25.6 25.6 0 0 0 6 6v10l-1 2-5 6q-2.903.975-6 1z" style="opacity:.989"/><path fill="#fee40c" d="M84.5 70.5v27a52 52 0 0 1-7-1 1465 1465 0 0 1-5-6l-1-2v-10a25.6 25.6 0 0 0 6-6 54 54 0 0 1 7-2" style="opacity:.977"/><path fill="#46e6d1" d="M35.5 74.5q3.54 2.047 5 6 1.821 3.945 0 8l-5 6q-18.824 2.917-14.5-16 5.81-7.256 14.5-4" style="opacity:.979"/><path fill="#29cccb" d="M133.5 73.5q12.741-1.984 15 10.5-2.29 13.898-16 10.5-2-3-5-5v-10a25.7 25.7 0 0 1 6-6" style="opacity:.976"/><path fill="#d0e3fa" d="M40.5 80.5h31v8h-31q1.821-4.055 0-8" style="opacity:.932"/><path fill="#b3c5f1" d="M96.5 80.5h31v8h-31z" style="opacity:.932"/><path fill="#ebf3fd" d="M40.5 88.5h1q7.5 8.5 16 16a25.7 25.7 0 0 0 6 6l16 17q-2.115 3.621-6 5a181 181 0 0 1-16-16 25.7 25.7 0 0 0-6-6q-8.5-7.5-16-16z" style="opacity:.906"/><path fill="#d1e3fc" d="M127.5 89.5q3 2 5 5l-16 17q-3.621 2.117-5 6a96.3 96.3 0 0 0-17 16 25.7 25.7 0 0 0-6-6q7.5-8.5 16-16 4-3 7-7a85 85 0 0 1 16-15" style="opacity:.989"/><path fill="#d0e4fb" d="M72.5 90.5q2.456 2.962 5 6-6.5 7.5-14 14a25.7 25.7 0 0 1-6-6z" style="opacity:.995"/><path fill="#b3c5f2" d="M95.5 90.5a157 157 0 0 0 16 14q-3 4-7 7l-14-15z" style="opacity:1"/><path fill="#b3c5f1" d="m116.5 111.5 13 12a25.7 25.7 0 0 0-6 6 102 102 0 0 1-12-12q1.379-3.883 5-6" style="opacity:.999"/><path fill="#cfe5fc" d="M51.5 110.5a25.7 25.7 0 0 1 6 6q-6 7-13 13l-5-6z" style="opacity:1"/><path fill="#664bc2" d="m39.5 123.5 5 6 2 5a632 632 0 0 0-3 8q-3.163 6.219-10.5 6-16.887-2.227-12-19 6.642-10.326 18.5-6" style="opacity:.979"/><path fill="#67329e" d="M124.5 142.5a648 648 0 0 0-3-8l2-5a25.7 25.7 0 0 1 6-6q19.614-4.142 18.5 16-5.249 11.249-17.5 8.5-3.744-1.996-6-5.5" style="opacity:.973"/><path fill="#29cbcc" d="m84.5 126.5 4 1a25.7 25.7 0 0 1 6 6v1q.332 4.169-1 8-2.145 6.335-9 6z" style="opacity:.977"/><path fill="#45e5d0" d="M84.5 126.5v22q-6.907.078-10-6-1.332-3.831-1-8v-2q3.885-1.379 6-5a20.7 20.7 0 0 1 5-1" style="opacity:.986"/><path fill="#d0e3fb" d="M46.5 134.5h27q-.332 4.169 1 8h-31a632 632 0 0 1 3-8" style="opacity:.933"/><path fill="#b4c4f1" d="M94.5 134.5h27a648 648 0 0 1 3 8h-31q1.332-3.831 1-8" style="opacity:.93"/></svg>
